assets/images/icons/go-go.svg

<svg width="53" height="12" fill="none" xmlns="http://www.w3.org/2000/svg"><path d="M1 11l5-5-5-5m9 10l5-5-5-5m9 10l5-5-5-5m9 10l5-5-5-5m9 10l5-5-5-5m9 10l5-5-5-5" stroke="#D4AF81" stroke-width="2"/></svg>

<svg width="53" height="12" viewBox="0 0 53 12" fill="none" xmlns="http://www.w3.org/2000/svg">
<path d="M1 11L6 6L1 1" stroke="#D4AF81" stroke-width="2"/>
<path d="M10 11L15 6L10 1" stroke="#D4AF81" stroke-width="2"/>
<path d="M19 11L24 6L19 1" stroke="#D4AF81" stroke-width="2"/>
<path d="M28 11L33 6L28 1" stroke="#D4AF81" stroke-width="2"/>
<path d="M37 11L42 6L37 1" stroke="#D4AF81" stroke-width="2"/>
<path d="M46 11L51 6L46 1" stroke="#D4AF81" stroke-width="2"/>
</svg>
